!! 00026] TT[TB
!! NN
!!!OTL: Da shuang mawozi songgei ni
!!!ARE: Asia, China,ÿSichuan, Nanjiang
!! Ethnic Group: Han
!! II, 212, 2)
!!!SCT: C0224
!!!YEM: Copyright 1995, estate of Helmut Schaffrath.
**kern
*ICvox
*Ivox
!! Mixed meters:  2/4; 3/4
*M2/4
*k[f#c#]
*D:
{8f#
8dd
8f#
16.dd
32b
=1
8b
16b
16b
4dd
=2
8b
8ee
8b
8dd}
=3
{8b
16b
16dd
8.b
16b
=4
8.dd
16dd
8f#
16dd
16b}
=5
{8a
16b
16b
8a
16b
16b
=6
8f#
8dd
8f#
8a
=7
8a
8dd
4b}
=8
*M3/4
{8b
8ee
8ee
4dd
16b
16b
=9
*M2/4
16ee
16dd
8b
8b
8r}
=10
{8.f#
16dd
8f#
16dd
16b
=11
8b
16b
16b
8dd
8dd}
=12
{8ee
16dd
16ee
8dd
16dd
16b
=13
8.a
16a
8.b
16b
=14
8.dd
16b
8f#
16dd
16b}
=15
{8a
16b
16b
8a
16b
16b
=16
8f#
8dd
8f#
8a
=17
8.dd
16b
4dd}
=18
{8ee
16dd
16ee
16b
16dd
16b
16b
=19
8ee
16dd
16b
8b
8r}
=20
{8.dd
16b
8f#
16dd
16b
=21
8b
16b
16b
8dd
8dd
=22
8.ee
16ee
8dd
8dd}
=23
{8b
16b
16dd
8.b
16b
=24
8.dd
16b
8.dd
16b}
=25
{8a
16b
16b
8a
16b
16b
=26
8.f#
16dd
8f#
8a}
=27
{8dd
16b
16b
8dd
16dd
16dd
=28
8b
8dd
8b
8b
=29
8b
[4.dd
=30
4.dd]}
{16b
16b
=31
8.ee
16dd
8b
8r}
==
!!!AGN: Shange. Biaoda aiqing
!! Der Schluss ist arrangiert. Nur die obere Zeilegilt. Der Saenger Lai Yuan
!!   Shen war frueher selbst Landarbeiter. Heute ist er Student an der Guangzhouer
!!   Musikhochschule. Aufgenommen am 5.5.87 +++ AUCH AUF KASSETTE 3 = 48, CUT 6
!!   (A-Seite) Vereinzelt Fermaten, einige Verzierungen und Glissandi. Die 5 in
!!   T. 7 bzw. 17, nicht 27), die erste 5 in T. 16 bzw. 26 klingt hoeher.
!!!ONB: ESAC (Essen Associative Code) Database: CHINA
!!!AMT: irregular
!!!AIN: vox
!!!EED: Helmut Schaffrath
!!!EEV: 1.0
*-
!!!ONB: Tied note syntax fixed by Craig Sapp, 2004/05/03/
